X:30
T:Weary Wayfarer Waltz
C:Corwin Zekley
L:1/8
M:3/4
K:Bmin
 x3 A dc |"G" B3 d BA |"D" F2 A3 D |"A" E3 F ED |"Bm" B,3 A, DC |$"G" B,3 A, B,C |"D" D3 C DE | %7
 FG A2 GF |"A" E3 A dc |$"G" B3 d BA |"D" F2 A3 D |"A" E3 F ED |"Bm" B,3 E FA |$"G" B3 A Bc | %14
"D" d2 DF Ad | f2 FA df |"A" a4 a2 |$"Bm" b3 a fa |"A" e2 c4 |"F#m" a3 g fd |"Bm" B4 B2 |$ %21
"Em" g3 f ed |"D" f3 e dA | FA df ad' |"A" c'4 c'2 |$"Bm" b3 a fa |"A" e2 c4 |"F#m" a3 g fd | %28
"Bm" B3 E FA |$"G" B3 d BA |"D" F2 A3 D |"A" E3 D C2 |"D" D3 x3 |] %33



